lib/assets/images/atm_web.svg

<svg width="24" height="24" viewBox="0 0 24 24" fill="none" xmlns="http://www.w3.org/2000/svg">
<circle cx="12" cy="12" r="12" fill="#3A83F1"/>
<path fill-rule="evenodd" clip-rule="evenodd" d="M5.7 9.04177C5.7 8.4875 6.19172 8.06669 6.74477 8.10341C9.00128 8.25325 10.3725 7.71323 11.7498 7.17082C13.2703 6.57199 14.7983 5.97026 17.533 6.29067C17.9748 6.34243 18.3 6.72658 18.3 7.17142V13.7166C18.3 14.282 17.7885 14.707 17.2259 14.6504C14.7343 14.3997 13.2733 14.9709 11.84 15.5313C10.3717 16.1053 8.93234 16.668 6.44353 16.3242C6.01207 16.2646 5.7 15.8858 5.7 15.4502L5.7 9.04177ZM14.1931 11.3154C14.1931 12.5149 13.2207 13.4874 12.0211 13.4874C10.8215 13.4874 9.8491 12.5149 9.8491 11.3154C9.8491 10.1158 10.8215 9.14337 12.0211 9.14337C13.2207 9.14337 14.1931 10.1158 14.1931 11.3154ZM16.875 8.49425C16.875 8.24296 16.6713 8.03925 16.42 8.03925C16.1687 8.03925 15.965 8.24296 15.965 8.49425V12.2617C15.965 12.513 16.1687 12.7167 16.42 12.7167C16.6713 12.7167 16.875 12.513 16.875 12.2617L16.875 8.49425ZM7.57728 9.92296C7.82857 9.92296 8.03228 10.1267 8.03228 10.378V14.1454C8.03228 14.3967 7.82857 14.6004 7.57728 14.6004C7.326 14.6004 7.12228 14.3967 7.12228 14.1454L7.12228 10.378C7.12228 10.1267 7.32599 9.92296 7.57728 9.92296Z" fill="white"/>
<path d="M17.9225 15.6616C14.9534 15.227 13.2861 15.8607 11.7222 16.4719L11.6738 16.4909C10.1782 17.0756 8.7837 17.6208 6.2569 17.2197C6.00872 17.1803 5.77559 17.3496 5.7362 17.5978C5.69681 17.846 5.86606 18.0791 6.11425 18.1185C8.88498 18.5582 10.4652 17.9404 12.0062 17.338L12.0535 17.3195C13.5597 16.7308 15.0514 16.161 17.7907 16.562C18.0394 16.5984 18.2705 16.4263 18.3068 16.1777C18.3432 15.929 18.1712 15.6979 17.9225 15.6616Z" fill="white"/>
</svg>

<svg width="24" height="24" fill="none" xmlns="http://www.w3.org/2000/svg"><circle cx="12" cy="12" r="12" fill="#3A83F1"/><path fill-rule="evenodd" clip-rule="evenodd" d="M5.7 9.042c0-.554.492-.975 1.045-.939 2.256.15 3.628-.39 5.005-.932 1.52-.599 3.048-1.2 5.783-.88a.88.88 0 0 1 .767.88v6.546c0 .565-.512.99-1.074.933-2.492-.25-3.953.32-5.386.881-1.468.574-2.908 1.137-5.396.793a.874.874 0 0 1-.744-.874V9.042zm8.493 2.273a2.172 2.172 0 1 1-4.344 0 2.172 2.172 0 0 1 4.344 0zm2.682-2.82a.455.455 0 1 0-.91 0v3.767a.455.455 0 1 0 .91 0V8.494zM7.577 9.922c.252 0 .455.204.455.455v3.767a.455.455 0 1 1-.91 0v-3.767c0-.251.204-.455.455-.455z" fill="#fff"/><path d="M17.922 15.662c-2.969-.435-4.636.199-6.2.81l-.048.019c-1.496.585-2.89 1.13-5.417.729a.455.455 0 0 0-.143.899c2.771.44 4.351-.179 5.892-.781l.047-.018c1.507-.59 2.998-1.159 5.738-.758a.455.455 0 1 0 .131-.9z" fill="#fff"/></svg>
